!!!COM: Fanny (Mendelssohn) Hensel
!!!CNT: Deutsch
!!!TXO: Deutsch
!!!OTL: "Im Herbst"
!!!LYR: von Eichendorff, Joseph Freiherr
!!!OPR: 
!!!OPS: Op. 
!!!ONM: No. 
!!!ENC: Emily Thomas
!!!YOR: Hensel: Ausgewa2hlte Lieder fu2r Singstimme und Klavier
!!!YOR: Breitkopf & Hartel, 1994 vol. 2
!!!ODT: 1844/
!!NB: Vocal melody and text encoded.
**kern	**silbe
=1-	=1
*clefG2	*
*k[f#]	*
*M6/8	*
*MM[Allegro molto]	*
4r	.
{8e	{Der
4g	Wald
8a	wird
=2	=2
4.b}	falb,}
4r	.
8r	.
=3	=3
4r	.
{8b	{die
4ee	Bla2t-
8ff#	-ter
=4	=4
4.ee	fal-
4dd#}	-len,}
{8b	{wie
=5	=5
4.ee	o2d
4ddn	und
8cc	|
=6	=6
4.b	still
4g	der
8a	|
=7	=7
4.b}	Raum!}
4r	.
8r	.
=8	=8
2.r	.
=9	=9
4r	.
{8b	{Die
4ffn	Ba2ch-
8ee	-lein
=10	=10
4dd	nur
8cc	gehn
4b	durch
8a	die
=11	=11
4.g#	Bu-
4.a	-chen-
=12	=12
4.cc	-hal-
4.b	-len
=13	=13
4.dd	lind
4cc#	rau-
8b	-schend
=14	=14
4.cc#	wie
4.f#	im
=15	=15
[2.ff#	Traum.
=16	=16
4.ff#]}	|}
4r	.
8r	.
=17	=17
*MM[meno Allegro]	*
4r	.
8r	.
4r	.
{8g	{Und
=18	=18
4b	A-
8a	-bend-
4cc	-glok-
8b	-ken
=19	=19
4.dd	schal-
4cc	-len
8r	.
=20	=20
8ee	fern
8dd	von
8cc	des
4g	Wal-
8a	-des
=21	=21
4.b}	Saum,}
4r	.
8r	.
=22	=22
2.r	.
=23	=23
2.r	.
=24	=24
{8ee-	{fern
8dd	von
8cc	des
4g	Wal-
8a	-des
=25	=25
[2.b	Saum.
=26	=26
4.b]}	|}
4r	.
8r	.
=27	=27
*MM[Tempo primo]	*
4r	.
{8e	{Was
4g	wollt
8a	ihr
=28	=28
4.b}	mich}
4r	.
8r	.
=29	=29
4r	.
{8b	{so
4ee	wild
8ff#	ver-
=30	=30
4.ee	lok-
4dd#	-ken
8b	in
=31	=31
4.ee	die-
4ddn	|
8cc	-ser
=32	=32
4.b	Ein-
4g	-sam-
8a	|
=33	=33
2.b}	-keit?}
=34	=34
2.r	.
=35	=35
4r	.
{8g	{Wie
4b	in
8cc	der
=36	=36
4.ee	Hei-
4.dd	-mat
=37	=37
4cc	klin-
8b	-gen
4a	die-
8b	-se
=38	=38
4.a	Glok-
4g	-ken
8g	aus
=39	=39
4.cc	stil-
4g	|
8a	-ler
=40	=40
[4.g	Kin-
4g]	|
8fn	-der-
=41	=41
4.e}	-zeit.}
4r	.
8r	.
=42	=42
2.r	.
=43	=43
4r	.
8r	.
4r	.
{8g	{ich
=44	=44
4b-	wen-
8a-	-de
4cc	mich
8bn	er-
=45	=45
4.dd	-schrok-
4cc}	-ken,}
{8a-	{ich
=46	=46
4cc	wen-
8b	-de
4dd	mich
8cc	er-
=47	=47
4.ee-	-schrok-
4dd}	-ken,}
8r	.
=48	=48
{8ffn	{ach!
8ee-	was
8dd	mich
4cc	liebt,
8g	ist
=49	=49
2.b}	weit!}
=50	=50
2.r	.
=51	=51
*MM[Tempo primo]	*
4r	.
{8e	{So
4g	brecht
8a	fer-
=52	=52
4.b}	-vor,}
4r	.
8r	.
=53	=53
4r	.
{8b	{ihr
4ee	al-
8ff#	-ten
=54	=54
4.ee	Lie-
4.dd#}	-der,}
=55	=55
{4.ee	{und
4ddn	brecht
8cc	das
=56	=56
4.b	herz
4g	mir
8a	|
=57	=57
4.b}	ab!}
4r	.
8r	.
=58	=58
2.r	.
=59	=59
4r	.
{8b	{Noch
4ffn	ein-
8ee	-mal
=60	=60
4dd	gru2ss
8cc	ich
4b	aus
8a	der
=61	=61
4.g#	Fer-
4.a	-ne
=62	=62
4.cc	wie-
4.b}	-der,}
=63	=63
{4.dd	{was
4cc#	ich
8b	nur
=64	=64
4.cc#	Lie-
4.f#	-bes
=65	=65
2.ff#}	hab,}
=66	=66
2.r	.
=67	=67
*MM[meno Allegro]	*
4r	.
8r	.
4r	.
{8g	{mich
=68	=68
4b	a-
8a	-ber
4cc	zieht
8b	es
=69	=69
4.dd	nie-
4cc	-der
8cc	vor
=70	=70
8.ee-	Weh-
16dd	|
8cc	-mut
4g	wie
8a	ins
=71	=71
2.b}	Grab,}
=72	=72
2.r	.
=73	=73
4r	.
8r	.
{4.b	{vor
=74	=74
[2.ee	Weh-
=75	=75
4.ee]	|
4.e	-mut
=76	=76
4.g	wie
4f#	|
8e	ins
=77	=77
2.e}	Grab.}
==	==
*-	*-
